X:102 
T:Ladies of Drogheda* (reel), The
F:file ID: cre.5/102ladies
B:CRE5.171 (gan ainm)
M:4/4
Q:180
R:reel
K:Em
FA|BEED EFGA|BEGB d^cBA|ADD^C DEFG|ADFA d^cBA|
BEED EFGA|BEGB d^cBA|Bd^ce dfec|dBAF E2:|
FA|Beef edef|gefd edB^c|dDD^C DEFG|ADFA d^cBA|
Beef edef|gefd edBA|Bd^ce dfec|dBAF E2:|

%%%

